assets/light/browser-light.svg

<svg id="Flat" xmlns="http://www.w3.org/2000/svg" viewBox="0 0 256 256">
  <path d="M216.00781,42h-176a14.01573,14.01573,0,0,0-14,14V95.84521C26.00635,95.89746,26,95.94775,26,96s.00635.10254.00781.15479V200a14.01573,14.01573,0,0,0,14,14h176a14.01572,14.01572,0,0,0,14-14V56A14.01572,14.01572,0,0,0,216.00781,42Zm-176,12h176a2.0026,2.0026,0,0,1,2,2V90h-180V56A2.0026,2.0026,0,0,1,40.00781,54Zm176,148h-176a2.0026,2.0026,0,0,1-2-2V102h180v98A2.0026,2.0026,0,0,1,216.00781,202Z"/>
</svg>

<svg xmlns="http://www.w3.org/2000/svg" viewBox="0 0 256 256"><path d="M216,42H40A14,14,0,0,0,26,56V200a14,14,0,0,0,14,14H216a14,14,0,0,0,14-14V56A14,14,0,0,0,216,42ZM40,54H216a2,2,0,0,1,2,2V90H38V56A2,2,0,0,1,40,54ZM216,202H40a2,2,0,0,1-2-2V102H218v98A2,2,0,0,1,216,202Z"/></svg>
